optimized/outline/pencil-alt.svg

<svg xmlns="http://www.w3.org/2000/svg" fill="none" viewBox="0 0 24 24" stroke-width="2" stroke="currentColor" aria-hidden="true">
  <path stroke-linecap="round" stroke-linejoin="round" d="M11 5H6C4.89543 5 4 5.89543 4 7V18C4 19.1046 4.89543 20 6 20H17C18.1046 20 19 19.1046 19 18V13M17.5858 3.58579C18.3668 2.80474 19.6332 2.80474 20.4142 3.58579C21.1953 4.36683 21.1953 5.63316 20.4142 6.41421L11.8284 15H9L9 12.1716L17.5858 3.58579Z"/>
</svg>

<svg xmlns="http://www.w3.org/2000/svg" fill="none" viewBox="0 0 24 24" stroke-width="2" stroke="currentColor" aria-hidden="true">
  <path stroke-linecap="round" stroke-linejoin="round" d="M11 5H6a2 2 0 00-2 2v11a2 2 0 002 2h11a2 2 0 002-2v-5m-1.414-9.414a2 2 0 112.828 2.828L11.828 15H9v-2.828l8.586-8.586z"/>
</svg>
